public/img/icons/messages.svg

<svg width="64" height="63" viewBox="0 0 64 63" fill="none" xmlns="http://www.w3.org/2000/svg">
<path fill-rule="evenodd" clip-rule="evenodd" d="M22.5882 0V11.2979H26.3529V3.76847H60.2353V30.1177H52.7021V38.7765L44.0471 30.1177H41.408V15.0626H0V48.9449H11.2903V62.9083L25.2235 48.9449H41.408V33.8824H42.4998L56.4706 47.8532V33.8824H64V3.33334e-05H22.5882V0ZM11.293 30.1188H30.1165V26.3541H11.293V30.1188H11.293ZM11.293 37.6482H22.5909V33.8798H11.293V37.6482H11.293ZM3.76473 18.8236H37.6471V45.1803H23.68L15.0551 53.8353V45.1803H3.76477V18.8235L3.76473 18.8236Z" fill="white"/>
</svg>

<svg xmlns="http://www.w3.org/2000/svg" width="64" height="63" fill="none" viewBox="0 0 64 63"><path fill="#fff" fill-rule="evenodd" d="M22.588 0v11.298h3.765v-7.53h33.882v26.35h-7.533v8.659l-8.655-8.66h-2.639V15.064H0v33.882h11.29v13.963l13.934-13.963h16.184V33.882H42.5l13.97 13.971v-13.97H64V0zM11.293 30.119h18.824v-3.765H11.292zm0 7.53h11.298v-3.77H11.293zM3.765 18.823h33.882V45.18H23.68l-8.625 8.655V45.18H3.765z" clip-rule="evenodd"/></svg>
